X:1568
T:Doctor,The. HSJJ.151
O:england
M:6/8
L:1/8
Q:110
S:HSJ Jackson,Wyresdale,Lancs.1823
R:Jig
A:Lancashire
H:1823
K:G
B/c/|dBG GFG|ABcB2c|dgd dgd|dcB ABc|dBG GFG|ABcB2c|dge dBd|cBAG2:|
|:B/c/|dgd dgd|dgd dcB|cde dag|fef def|gfe dcB|ABcB2c|dBG EcB|AGFG2:|]


